img/logos/c++.svg

<svg width="256" height="288" viewBox="0 0 256 288" xmlns="http://www.w3.org/2000/svg" preserveAspectRatio="xMinYMin meet"><path d="M255.57 84.72c-.003-4.83-1.036-9.098-3.125-12.76-2.052-3.603-5.125-6.622-9.247-9.01C209.173 43.333 175.115 23.774 141.1 4.135c-9.17-5.294-18.06-5.1-27.162.27C100.395 12.39 32.59 51.236 12.385 62.94 4.065 67.757.015 75.13.013 84.71 0 124.167.013 163.62 0 203.077c.002 4.724.99 8.91 2.988 12.517 2.053 3.71 5.17 6.813 9.386 9.254 20.206 11.703 88.02 50.547 101.56 58.536 9.106 5.373 17.997 5.565 27.17.27 34.015-19.64 68.075-39.2 102.105-58.818 4.216-2.44 7.332-5.544 9.385-9.252 1.994-3.608 2.985-7.793 2.987-12.518 0 0 0-78.89-.013-118.345" fill="#5C8DBC"/><path d="M128.182 143.51L2.988 215.592c2.053 3.71 5.17 6.813 9.386 9.254 20.206 11.703 88.02 50.547 101.56 58.536 9.106 5.373 17.997 5.565 27.17.27 34.015-19.64 68.075-39.2 102.105-58.818 4.216-2.44 7.332-5.544 9.385-9.252L128.182 143.51" fill="#1A4674"/><path d="M91.1 164.86c7.286 12.72 20.98 21.297 36.69 21.297 15.808 0 29.58-8.687 36.83-21.54l-36.438-21.108-37.08 21.35" fill="#1A4674"/><path d="M255.57 84.72c-.003-4.83-1.036-9.098-3.125-12.76l-124.263 71.55 124.413 72.073c1.994-3.608 2.985-7.793 2.987-12.518 0 0 0-78.89-.013-118.345" fill="#1B598E"/><path d="M248.728 148.66h-9.722v9.725h-9.724v-9.724h-9.72v-9.72h9.72v-9.722h9.724v9.722h9.722v9.72M213.253 148.66h-9.72v9.725h-9.723v-9.724h-9.722v-9.72h9.722v-9.722h9.722v9.722h9.72v9.72" fill="#FFF"/><path d="M164.62 164.616c-7.25 12.854-21.022 21.54-36.83 21.54-15.71 0-29.404-8.577-36.69-21.295-3.538-6.18-5.573-13.334-5.573-20.967 0-23.34 18.923-42.263 42.264-42.263 15.61 0 29.233 8.47 36.554 21.06l36.94-21.273C186.603 76.07 159.19 59.02 127.792 59.02c-46.875 0-84.874 38-84.874 84.873 0 15.378 4.09 29.8 11.24 42.238 14.647 25.48 42.138 42.638 73.635 42.638 31.556 0 59.09-17.226 73.715-42.78l-36.886-21.372" fill="#FFF"/></svg>

<?xml version="1.0" encoding="UTF-8" standalone="no"?>
<svg width="256px" height="288px" viewBox="0 0 256 288" version="1.1" xmlns="http://www.w3.org/2000/svg" xmlns:xlink="http://www.w3.org/1999/xlink" preserveAspectRatio="xMinYMin meet">
	<g>
		<path d="M255.569,84.72 C255.567,79.89 254.534,75.622 252.445,71.959 C250.393,68.357 247.32,65.338 243.198,62.951 C209.173,43.332 175.115,23.773 141.101,4.134 C131.931,-1.16 123.04,-0.967 113.938,4.403 C100.395,12.39 32.59,51.237 12.385,62.94 C4.064,67.757 0.015,75.129 0.013,84.711 C0,124.166 0.013,163.62 0,203.076 C0.002,207.8 0.991,211.985 2.988,215.593 C5.041,219.304 8.157,222.406 12.374,224.847 C32.58,236.55 100.394,275.394 113.934,283.383 C123.04,288.756 131.931,288.948 141.104,283.652 C175.119,264.012 209.179,244.454 243.209,224.835 C247.426,222.395 250.542,219.291 252.595,215.583 C254.589,211.975 255.58,207.79 255.582,203.065 C255.582,203.065 255.582,124.176 255.569,84.72" fill="#5C8DBC"></path>
		<path d="M128.182,143.509 L2.988,215.593 C5.041,219.304 8.157,222.406 12.374,224.847 C32.58,236.55 100.394,275.394 113.934,283.383 C123.04,288.756 131.931,288.948 141.104,283.652 C175.119,264.012 209.179,244.454 243.209,224.835 C247.426,222.395 250.542,219.291 252.595,215.583 L128.182,143.509" fill="#1A4674"></path>
		<path d="M91.101,164.861 C98.386,177.579 112.081,186.157 127.791,186.157 C143.598,186.157 157.371,177.47 164.619,164.616 L128.182,143.509 L91.101,164.861" fill="#1A4674"></path>
		<path d="M255.569,84.72 C255.567,79.89 254.534,75.622 252.445,71.959 L128.182,143.509 L252.595,215.583 C254.589,211.975 255.58,207.79 255.582,203.065 C255.582,203.065 255.582,124.176 255.569,84.72" fill="#1B598E"></path>
		<path d="M248.728,148.661 L239.006,148.661 L239.006,158.385 L229.282,158.385 L229.282,148.661 L219.561,148.661 L219.561,138.94 L229.282,138.94 L229.282,129.218 L239.006,129.218 L239.006,138.94 L248.728,138.94 L248.728,148.661" fill="#FFFFFF"></path>
		<path d="M213.253,148.661 L203.532,148.661 L203.532,158.385 L193.81,158.385 L193.81,148.661 L184.088,148.661 L184.088,138.94 L193.81,138.94 L193.81,129.218 L203.532,129.218 L203.532,138.94 L213.253,138.94 L213.253,148.661" fill="#FFFFFF"></path>
		<path d="M164.619,164.616 C157.371,177.47 143.598,186.157 127.791,186.157 C112.081,186.157 98.386,177.579 91.101,164.861 C87.562,158.681 85.527,151.526 85.527,143.893 C85.527,120.552 104.45,101.63 127.791,101.63 C143.4,101.63 157.023,110.101 164.344,122.689 L201.285,101.417 C186.602,76.071 159.189,59.019 127.791,59.019 C80.915,59.019 42.916,97.019 42.916,143.893 C42.916,159.271 47.007,173.692 54.157,186.131 C68.803,211.611 96.294,228.768 127.791,228.768 C159.346,228.768 186.88,211.542 201.505,185.987 L164.619,164.616" fill="#FFFFFF"></path>
	</g>
</svg>
